icons/24x24_ticket_filled.svg

<svg xmlns="http://www.w3.org/2000/svg" width="24" height="24" viewBox="0 0 24 24">
  <path d="M2.57472933,11.7126353 L11.7126353,2.57472933 C12.0806283,2.20673632 12.579734,2 13.1001547,2 L20.0377513,2 C21.1214714,2 22,2.87852865 22,3.96224866 L22,10.8998453 C22,11.420266 21.7932637,11.9193717 21.4252707,12.2873647 L12.2873647,21.4252707 C11.5210589,22.1915764 10.2786318,22.1915764 9.512326,21.4252707 L2.57472933,14.487674 C1.80842356,13.7213682 1.80842356,12.4789411 2.57472933,11.7126353 Z M17.837442,8.93759667 C18.6037478,8.1712909 18.6037478,6.92886377 17.837442,6.162558 C17.0711362,5.39625223 15.8287091,5.39625223 15.0624033,6.162558 C14.2960976,6.92886377 14.2960976,8.1712909 15.0624033,8.93759667 C15.8287091,9.70390244 17.0711362,9.70390244 17.837442,8.93759667 Z"/>
</svg>

<svg width="24" height="24" fill="none" xmlns="http://www.w3.org/2000/svg"><path d="m2.575 11.713 9.138-9.138A1.962 1.962 0 0 1 13.1 2h6.938C21.122 2 22 2.879 22 3.962V10.9c0 .52-.207 1.02-.575 1.387l-9.138 9.138a1.962 1.962 0 0 1-2.775 0l-6.937-6.937a1.962 1.962 0 0 1 0-2.775Zm15.262-2.775a1.962 1.962 0 1 0-2.775-2.775 1.962 1.962 0 0 0 2.775 2.775Z" fill="#000"/></svg>
